!!!!SEGMENT: pl-wnifc--2277-n--001_stefani-jan--mazur.krn
!!!cenid: 18xx:3897
!!!COM: Stefani, Jan
!!!COM-rismID: pe30012827
!!!CDT: ~1746-1829/02/23
!!!CNT: Polish
!!!OTL: Mazur
!!!PDT:
!!!AGN:
!!!SMS-siglum: PL-Wnifc
!!!SMS-shelfmark: 2277/n
!!!SMS-shelfwork: 001 W
!!!SMS-variant:
!!!SMS-altvar:
!!!NIFC-rismSourceID: 1001155784
!!!NIFC-islandoraID: nifc:211877
!!!URL-pdf-islandora: https://repozytorium.nifc.pl/islandora/object/nifc%3A211877/datastream/PDF/view
!!!URL-scan: https://polish.musicsources.pl/pl/lokalizacje/galeria/druki-muzyczne/16808 @EN{Scan on Polish Music Sources Website} @PL{Skany w portalu Dziedzictwo Muzyki Polskiej w otwartym dostępie}
!!!ONB-nifc:
!!!AIN: 2 piano
!!!key: D
**kern	**kern	**dynam
*part2	*part1	*part1
*staff2	*staff1	*
*I"Piano	*I"Piano	*
*I'pf	*I'pf	*
*ICklav	*ICklav	*
*Ipiano	*Ipiano	*
*>[A,A1,A,A2,B,B1,B,B2]	*>[A,A1,A,A2,B,B1,B,B2]	*>[A,A1,A,A2,B,B1,B,B2]
*>A	*>A	*>A
*clefF4	*clefG2	*
*k[f#c#]	*k[f#c#]	*
*D:	*D:	*
*M3/8	*M3/8	*
=1	=1	=1
*^	*	*
4.AA/	8AA\L	24aa|\LL	f
.	.	(24fff#\	.
.	.	24eee\JJ)	.
.	8E\ 8A	8bb\L	.
.	8E\J 8A	8gg'\J 8ccc#	.
=2	=2	=2	=2
4.D/	8D\L	16.ff#|\LL 16.ddd	.
.	.	32dd|\JJk 32ff#	.
.	8F#\ 8A	(8gg\L 8bb	.
.	8F#\J 8A	8ff#\J) 8aa	.
*v	*v	*	*
=3	=3	=3
!	!LO:TUP:a:problem:klamra łukowa	!
8AA\L 8E 8A	24ee\LL 24gg	p
.	24ff#\ 24aa	.
.	24ee\JJ 24gg	.
8AA\ 8E 8A	8cc#\L 8ee	.
8AA\J 8E 8A	8cc#\J 8ee 8aa	.
=4	=4	=4
16D\ 16F# 16A	16.dd\LL 16.ff#	.
16r	.	.
.	32ee\JJk 32gg	.
4D\ 4F# 4A	4ff#\ 4aa	.
=5	=5	=5
*^	*	*
4.AA/	8AA\L	24aa|\LL	f
.	.	(24fff#\	.
.	.	24eee\JJ)	.
.	8E\ 8A	8bb\L	.
.	8E\J 8A	8gg'\J 8ccc#	.
=6	=6	=6	=6
4.D/	8D\L	16.ff#'\LL 16.ddd	.
.	.	32dd|\JJk 32ff#	.
.	8F#\ 8A	(8gg\L 8bb	.
.	8F#\J 8A	8ff#\J) 8aa	.
=7	=7	=7	=7
*>A1	*>A1	*>A1	*>A1
!	!	!LO:TUP:a:problem:klamra łukowa	!
4.GG/	8GG\L	24bb\LL	p
.	.	24aa#X\	.
.	.	24bb\JJ	.
.	8BB\ 8E 8G	8ddd\L	.
.	8BB\J 8E 8G	8bb\J	.
!!LO:LB:g=original	!	!	!
=8	=8	=8	=8
8FF#/	8FF#\L	16.aa#X\LL	.
.	.	32bb\JJk	.
4ryy	16AA#X\Jk 16C# 16F#	16ccc#\	f
.	16r	16r	.
.	8FF#\ 8AA# 8C# 8F#	8ff#^<\ 8aa# 8fff#	.
*v	*v	*	*
=9:|!	=9:|!	=9:|!
*>A2	*>A2	*>A2
!	!LO:TUP:a:problem:klamra łukowa	!
8AA\L 8E 8A	24ee\LL 24gg	.
.	24ff#\ 24aa	.
.	24ee\JJ 24gg	.
8AA\ 8E 8A	8cc#\L 8ee	.
8AA\J 8E 8A	8cc#\J 8ee 8aa	.
=10	=10	=10
16D\ 16F# 16A	16dd\	.
16r	16r	.
8D\ 8F# 8A	8dd^<\ 8ff# 8ddd	.
8r	8r	.
=11!|:	=11!|:	=11!|:
*>B	*>B	*>B
*^	*	*
4.E/	8E\L	16.ddd|\LL	p
.	.	32ccc#|\JJk	.
.	8G#X\ 8B 8d	8bb|\L	.
.	8G#\J 8B 8d	8ee'\J	.
=12	=12	=12	=12
4.E/	8E\L	16.ccc#|\LL	.
.	.	32bb|\JJk	.
.	8A\ 8c#	8aa|\L	.
.	8A\J 8c#	8ee'\J	.
=13	=13	=13	=13
.	.	(8qff#/	.
4.E/	8E\L	16.ee\LL)	.
.	.	32dd#X|\K	.
.	8B\ 8d	16.ee|\	.
.	.	32gg#X|\JK	.
.	8B\J 8d	8bb|\J	.
!!LO:LB:g=original	!	!	!
=14	=14	=14	=14
4.E/	8E\L	16aa\LL	f
.	.	32r	.
.	.	32ff#\JJk 32fff#	.
.	8A\ 8c#	8ee\L 8eee	.
.	8A\J 8c#	8cc#\J 8ccc#	.
=15	=15	=15	=15
.	.	(8qeee/	p
4.E/	8E\L	16.ddd\LL)	.
.	.	32ccc#|\JJk	.
.	8G#X\ 8B 8d	16bb|\KL	.
.	.	16r	.
.	8G#\J 8B 8d	8ee|^<\J 8eee	.
=16	=16	=16	=16
.	.	(8qddd/	.
4.E/	8E\L	16.ccc#\LL)	.
.	.	32bb|\JJk	.
.	8A\ 8c#	16aa|\KL	.
.	.	16r	.
.	8A\J 8c#	8ee|^<\J 8eee	.
=17	=17	=17	=17
.	.	(<8qff#/	.
4.E/	8E\L	16.ee\LL)	.
.	.	32dd#X|\K	.
.	8G#X\ 8B 8e	16.ee|\	.
.	.	32gg#X|\JK	.
.	8G#\J 8B 8e	8bb|\J	.
*v	*v	*	*
=18	=18	=18
16A\ 16c#	16aa\	.
16r	16r	.
8AA\ 8A	8aa^<\ 8ccc# 8aaa	.
8r	8r	.
=19	=19	=19
*^	*	*
4.AA/	8AA\L	24aa|\LL	f
.	.	(24fff#\	.
.	.	24eee\JJ)	.
.	8E\ 8A	8bb\L	.
!	!	!LO:TX:a:t=|:problem	!
.	8E\J 8A	8gg\J 8ccc#	.
!!LO:LB:g=original	!	!	!
=20	=20	=20	=20
!	!	!LO:TX:a:t=|:problem	!
4.D/	8D\L	16.ff#\LL 16.ddd	.
!	!	!LO:TX:a:t=|:problem	!
.	.	32dd\JJk 32ff#	.
.	8F#\ 8A	(8gg\L 8bb	.
.	8F#\J 8A	8ff#\J) 8aa	.
*v	*v	*	*
=21	=21	=21
*tremolo	*	*
!	!LO:TUP:a:problem:klamra łukowa	!
8AA\L 8E 8A	24ee\LL 24gg	p
.	24ff#\ 24aa	.
.	24ee\JJ 24gg	.
8AA\ 8E 8A	8cc#\L 8ee	.
8AA\J 8E 8A	8cc#'\J 8ee 8aa	.
=22	=22	=22
8D\L 8F# 8A	16.dd\LL 16.ff#	.
.	32ee\JJk 32gg	.
8D\ 8F# 8A	4ff#\ 4aa	.
8D\J 8F# 8A	.	.
=23	=23	=23
*Xtremolo	*	*
*^	*	*
!	!	!LO:TX:a:t=|:problem	!
4.AA/	8AA\L	24aa\LL	f
.	.	(24fff#\	.
.	.	24eee\JJ)	.
.	8E\ 8A	8bb\L	.
!	!	!LO:TX:a:t=|:problem	!
.	8E\J 8A	8gg\J 8ccc#	.
=24	=24	=24	=24
!	!	!LO:TX:a:t=|:problem	!
4.D/	8D\L	16.ff#\LL 16.ddd	.
!	!	!LO:TX:a:t=|:problem	!
.	.	32dd\JJk 32ff#	.
.	8F#\ 8A	(8gg\L 8bb	.
.	8F#\J 8A	8ff#\J) 8aa	.
*v	*v	*	*
=25	=25	=25
*tremolo	*	*
!	!LO:TUP:a:problem:klamra łukowa	!
8AA\L 8E 8A	24ee\LL 24gg	.
.	24ff#\ 24aa	.
.	24ee\JJ 24gg	.
8AA\ 8E 8A	8cc#\L 8ee	.
8AA\J 8E 8A	8cc#'\J 8ee 8aa	.
=26	=26	=26
16D\ 16F# 16A	16dd|\	.
16r	16r	.
8D\ 8F# 8A	8dd|^<\ 8ff# 8ddd	.
8r	8r	.
!!LO:LB:g=original	!	!
=27:|!	=27:|!	=27:|!
*k[f#]	*k[f#]	*
*M3/8	*M3/8	*
.	(8qee/	p
8GG\L 8D 8G	4.dd\)	.
8GG\ 8D 8G	.	.
8GG\J 8D 8G	.	.
=28	=28	=28
!	!LO:TUP:a:problem:klamra łukowa	!
8GG\L 8D 8G	24cc#X^<\LL	sf
.	24ee\	.
.	24dd\JJ	.
8GG\ 8D 8G	4b\	.
8GG\J 8D 8G	.	.
=29	=29	=29
.	(8qee/	.
8GG\L 8D 8G	4.dd\)	.
8GG\ 8D 8G	.	.
8GG\J 8D 8G	.	.
=30	=30	=30
!	!LO:TUP:a:problem:klamra łukowa	!
8GG\L 8D 8G	24cc#X^<\LL	.
.	24ee\	.
.	24dd\JJ	.
8GG\ 8D 8G	4g/	.
8GG\J 8D 8G	.	.
=31	=31	=31
.	(8qb/	.
8GG\L 8C 8D 8F#	16.a/LL)	.
!	!LO:TX:b:t=|:problem	!
.	32g#X/JJk	.
8GG\ 8C 8D 8F#	8a'/L	.
8GG\J 8C 8D 8F#	8d'/J	.
=32	=32	=32
!	!LO:TUP:b:problem:klamra łukowa	!
8GG\L 8BB 8D 8G	24b/LL	.
.	24cc/	.
.	24b/JJ	.
8GG\ 8BB 8D 8G	4g/	.
8GG\J 8BB 8D 8G	.	.
=33	=33	=33
.	(8qb/	.
8GG\L 8C 8D 8F#	16.a/LL)	.
!	!LO:TX:b:t=|:problem	!
.	32g#X/JJk	.
8GG\ 8C 8D 8F#	16a'\LL	.
.	16b'\	.
8GG\J 8C 8D 8F#	16cc'\	.
.	16cc#X'\JJ	.
=34	=34	=34
!	!LO:TUP:a:problem:klamra łukowa	!
8GG\L 8BB 8D 8G	24ee\LL	.
.	24cc#X\	.
.	24dd\JJ	.
8GG\ 8BB 8D 8G	8gg\L	.
8GG\J 8BB 8D 8G	8bb\J	.
!!LO:LB:g=original	!	!
=35	=35	=35
!	!LO:TUP:a:problem:klamra łukowa	!
8GG/L 8C 8D 8F#	24aa#X\LL	.
.	24bb\	.
.	24aa#\JJ	.
8GG/ 8C 8D 8F#	4dd\	.
8GG/J 8C 8D 8F#	.	.
=36	=36	=36
!	!LO:TUP:a:problem:klamra łukowa	!
8GG/L 8BB 8D 8G	24bb\LL	.
.	24ccc\	.
.	24bb\JJ	.
8GG/ 8BB 8D 8G	4gg\	.
8GG/J 8BB 8D 8G	.	.
=37	=37	=37
!	!LO:TUP:a:problem:klamra łukowa	!
8BB\L 8D#X 8F# 8A	24ff#^<\LL	.
.	24ccc\	.
.	24bb\JJ	.
8BB\ 8D# 8F# 8A	8ff#'\L	.
8BB\J 8D# 8F# 8A	(16aa\L	.
.	16gg\JJ)	.
*Xtremolo	*	*
=38	=38	=38
16E\ 16G	16ee\	.
16r	16r	.
8E\ 8G	8ee^<\ 8gg 8eee	.
8r	8r	.
=39:|!	=39:|!	=39:|!
16DD/ 16D	16a|\LL 16cc	f
16r	32r	.
.	32a'\JJk 32cc 32ff#	.
8D\L 8F# 8A 8c	8a|\L 8cc 8aa	.
8D\J 8F# 8A 8c	8a|\J 8cc	.
=40	=40	=40
16GG/ 16G	16g|\LL 16b	.
16r	32r	.
.	32cc|\JJk 32ee	.
8D\L 8G 8B	8b|\L 8dd	.
8D\J 8G 8B	8g|\J 8b	.
=41	=41	=41
.	(8qb/	p
*^	*	*
4.D/	8D\L	16.a/LL)	.
.	.	32g#X|/JJk	.
.	8F#\ 8A 8c	8a|/L	.
.	8F#\J 8A 8c	8d|/J	.
*v	*v	*	*
!!LO:PB:g=original	!	!
=42	=42	=42
.	(8qcc/	.
16GG\ 16G	16.b/LL)	.
16r	.	.
.	32a#X|/JJk	.
8D\L 8G 8B	8b|/L	.
8D\J 8G 8B	8g|/J	.
=43	=43	=43
16DD/ 16D	16a|\LL 16cc	f
16r	32r	.
.	32a|\JJk 32cc 32ff#	.
8D\L 8F# 8A 8c	8a|\L 8cc 8aa	.
8D\J 8F# 8A 8c	8a|\J 8cc	.
=44	=44	=44
16GG\ 16G	16g|\LL 16b	.
16r	32r	.
.	32cc|\JJk 32ee	.
8D\L 8G 8B	8b|\L 8dd	.
8D\J 8G 8B	8g|\J 8b	.
=45	=45	=45
*>B1	*>B1	*>B1
8AA\L 8C#X 8E 8G	16.b'/LL	.
.	32a'/JJk	.
8AA\ 8C# 8E 8G	8e|/L	.
8AA\J 8C# 8E 8G	(16g/L	.
.	16f#/JJ)	.
=46	=46	=46
.	(32qqf#/LLL	.
.	32qqe/JJJ	.
8D\L 8F#	4.d/)	.
8D\ 8F#	.	.
8D\J 8F#	.	.
=47||	=47||	=47||
*>B2	*>B2	*>B2
*tremolo	*	*
8D\L 8F# 8A 8c	16.f#\LL 16.a	f
.	32g\K 32b	.
8D\ 8F# 8A 8c	16.a\ 16.cc	.
.	32b\K 32dd	.
8D\J 8F# 8A 8c	16.cc\ 16.ee	.
.	32a\JJk 32ff#	.
=48	=48	=48
16G\ 16B	16b\ 16gg	.
16r	16r	.
8GG\ 8G	8b\ 8dd 8gg	.
!	!LO:TX:b:t=D&colon;C&colon;\nMazur	!
8r;;	8r;;	.
==	==	==
*-	*-	*-
!!!system-decoration: {(s1,s2)}
!!!RDF**kern: > = above
!!!RDF**kern: < = below
!!!RDF**kern: | = vertical stroke
!!!ENC: Andrzej Gręziak
!!!END: 2022-07-22
!!!ENC: Natalia Wrzos
!!!END: 2022-08-16
